X:3914
T:Dark-Haired Lass
R:Reel
S:
H:
N:
D:
Z:Adrian Scahill
M:4/4
L:1/8
K:G 
A|BGGA BcdB|c2=fc A=FFA|BGG2 BcdB|1 c=fdB G3A:|2 c=fdB G3c||\
Bcde =f2df|edce =fedc|Bcde =fdgf|ecdB G3A|\
Bcde =f2df|edcB cde=f|g2=fd ecdB|cedB G4||


